neru-light-classic/32x32/apps/bovo.svg

<?xml version="1.0" encoding="UTF-8" standalone="no"?>
<svg
   xmlns:dc="http://purl.org/dc/elements/1.1/"
   xmlns:cc="http://creativecommons.org/ns#"
   xmlns:rdf="http://www.w3.org/1999/02/22-rdf-syntax-ns#"
   xmlns:svg="http://www.w3.org/2000/svg"
   xmlns="http://www.w3.org/2000/svg"
   xmlns:sodipodi="http://sodipodi.sourceforge.net/DTD/sodipodi-0.dtd"
   xmlns:inkscape="http://www.inkscape.org/namespaces/inkscape"
   height="32"
   width="32"
   version="1"
   id="svg16"
   sodipodi:docname="bovo.svg"
   inkscape:version="0.92.1 r">
  <metadata
     id="metadata22">
    <rdf:RDF>
      <cc:Work
         rdf:about="">
        <dc:format>image/svg+xml</dc:format>
        <dc:type
           rdf:resource="http://purl.org/dc/dcmitype/StillImage" />
      </cc:Work>
    </rdf:RDF>
  </metadata>
  <defs
     id="defs20" />
  <sodipodi:namedview
     pagecolor="#ffffff"
     bordercolor="#666666"
     borderopacity="1"
     objecttolerance="10"
     gridtolerance="10"
     guidetolerance="10"
     inkscape:pageopacity="0"
     inkscape:pageshadow="2"
     inkscape:window-width="1680"
     inkscape:window-height="965"
     id="namedview18"
     showgrid="false"
     inkscape:zoom="7.375"
     inkscape:cx="-10.305084"
     inkscape:cy="24.813559"
     inkscape:window-x="0"
     inkscape:window-y="0"
     inkscape:window-maximized="1"
     inkscape:current-layer="svg16" />
  <rect
     style="opacity:1;fill:#dcdcbe;fill-opacity:1;fill-rule:evenodd;stroke:none;stroke-width:1.03534329;stroke-linecap:round;stroke-linejoin:bevel;stroke-miterlimit:4;stroke-dasharray:none;stroke-dashoffset:0;stroke-opacity:1"
     id="rect4497-3"
     width="28.203388"
     height="28.203388"
     x="1.8983059"
     y="1.8983059"
     ry="5.575182" />
  <path
     style="fill:#3c79e7;stroke-width:1"
     inkscape:connector-curvature="0"
     d="M 8.0112995,5.3483993 A 2.6629002,2.6629002 0 0 0 5.3483993,8.0112995 2.6629002,2.6629002 0 0 0 8.0112995,10.6742 2.6629002,2.6629002 0 0 0 10.6742,8.0112995 2.6629002,2.6629002 0 0 0 8.0112995,5.3483993 Z m 0,1.3314501 A 1.3314501,1.3314501 0 0 1 9.3427496,8.0112995 1.3314501,1.3314501 0 0 1 8.0112995,9.3427496 1.3314501,1.3314501 0 0 1 6.6798494,8.0112995 1.3314501,1.3314501 0 0 1 8.0112995,6.6798494 Z"
     id="path8" />
  <path
     style="opacity:1;fill:#808080;stroke-width:1"
     inkscape:connector-curvature="0"
     d="M 12.00565,4.0169492 V 12.00565 H 4.0169492 V 13.3371 H 12.00565 v 5.3258 H 4.0169492 v 1.33145 H 12.00565 v 7.988701 H 13.3371 V 19.99435 h 5.3258 v 7.988701 h 1.33145 V 19.99435 h 7.988701 V 18.6629 H 19.99435 v -5.3258 h 7.988701 V 12.00565 H 19.99435 V 4.0169492 H 18.6629 V 12.00565 H 13.3371 V 4.0169492 Z M 13.3371,13.3371 h 5.3258 v 5.3258 h -5.3258 z"
     id="path10" />
  <path
     style="fill:#3c79e7;stroke-width:1"
     inkscape:connector-curvature="0"
     d="m 23.988701,21.3258 a 2.6629002,2.6629002 0 0 0 -2.662901,2.662901 2.6629002,2.6629002 0 0 0 2.662901,2.6629 2.6629002,2.6629002 0 0 0 2.6629,-2.6629 2.6629002,2.6629002 0 0 0 -2.6629,-2.662901 z m 0,1.331451 a 1.3314501,1.3314501 0 0 1 1.33145,1.33145 1.3314501,1.3314501 0 0 1 -1.33145,1.33145 1.3314501,1.3314501 0 0 1 -1.33145,-1.33145 1.3314501,1.3314501 0 0 1 1.33145,-1.33145 z"
     id="path12" />
  <path
     style="fill:#e74c3c;stroke-width:1"
     inkscape:connector-curvature="0"
     d="M 17.412669,13.645996 16,15.058665 14.587332,13.645996 13.645996,14.587332 15.058665,16 13.645996,17.412669 14.587332,18.354004 16,16.941335 17.412669,18.354004 18.354004,17.412669 16.941335,16 18.354004,14.587332 Z"
     id="path14" />
</svg>

<svg xmlns="http://www.w3.org/2000/svg" height="32" width="32" version="1"><rect width="28.203" height="28.203" x="1.898" y="1.898" ry="5.575" fill="#dcdcbe" fill-rule="evenodd"/><path d="M8.011 5.348a2.663 2.663 0 0 0-2.663 2.663 2.663 2.663 0 0 0 2.663 2.663 2.663 2.663 0 0 0 2.663-2.663 2.663 2.663 0 0 0-2.663-2.663zm0 1.332A1.331 1.331 0 0 1 9.343 8.01 1.331 1.331 0 0 1 8.01 9.343 1.331 1.331 0 0 1 6.68 8.01 1.331 1.331 0 0 1 8.01 6.68z" fill="#3c79e7"/><path d="M12.006 4.017v7.989h-7.99v1.331h7.99v5.326h-7.99v1.331h7.99v7.99h1.331v-7.99h5.326v7.99h1.331v-7.99h7.99v-1.331h-7.99v-5.326h7.99v-1.331h-7.99v-7.99h-1.331v7.99h-5.326v-7.99zm1.331 9.32h5.326v5.326h-5.326z" fill="gray"/><path d="M23.989 21.326a2.663 2.663 0 0 0-2.663 2.663 2.663 2.663 0 0 0 2.663 2.663 2.663 2.663 0 0 0 2.663-2.663 2.663 2.663 0 0 0-2.663-2.663zm0 1.331a1.331 1.331 0 0 1 1.331 1.332 1.331 1.331 0 0 1-1.331 1.331 1.331 1.331 0 0 1-1.332-1.331 1.331 1.331 0 0 1 1.332-1.332z" fill="#3c79e7"/><path d="M17.413 13.646L16 15.059l-1.413-1.413-.941.941L15.059 16l-1.413 1.413.941.941L16 16.941l1.413 1.413.941-.941L16.941 16l1.413-1.413z" fill="#e74c3c"/></svg>
